X: 6
T: Horizonto
R: jig
M: 6/8
L: 1/8
K: Emin
BcA BGA | FGE FDE | B,2B, EFG | F2D DEF |
G2G GAG | F2D DEF | GFE FED | B,CD E3 :|
|: C2C EFG | C2C EFG | B,2B, EFG | B,2B, EFG |
C2C EFG | C2C EFG |1 BcA BGA | FGE FDE :|2 ^C2C EFG | ^C2C EFG ||
c2B- BAG | F3 FGA | B2A- AGF | E3 EFG |
A2G- GFE | ^D3 DEF | G2A- A_B2 | =B3 BAB |
c2d- dc2 | F3 FGA | B2c- cB2 | E3 EFG |
A2G- GFE | ^D3 DEF | GFE FED | B,CD E3 :|


Tune 6839	Setting 18427

